exported-svg/calendar.svg

<svg height="24" viewBox="0 0 24 24" width="24" xmlns="http://www.w3.org/2000/svg"><path d="m20.5 9.5v-3.5c0-.82842712-.6715729-1.5-1.5-1.5h-2.5v1.5c0 .27614237-.2238576.5-.5.5s-.5-.22385763-.5-.5v-1.5h-7v1.5c0 .27614237-.22385763.5-.5.5s-.5-.22385763-.5-.5v-1.5h-2.5c-.82842712 0-1.5.67157288-1.5 1.5v3.5zm0 1h-17v9.5c0 .8284271.67157288 1.5 1.5 1.5h14c.8284271 0 1.5-.6715729 1.5-1.5zm-12-7h7v-1.5c0-.27614237.2238576-.5.5-.5s.5.22385763.5.5v1.5h2.5c1.3807119 0 2.5 1.11928813 2.5 2.5v14c0 1.3807119-1.1192881 2.5-2.5 2.5h-14c-1.38071187 0-2.5-1.1192881-2.5-2.5v-14c0-1.38071187 1.11928813-2.5 2.5-2.5h2.5v-1.5c0-.27614237.22385763-.5.5-.5s.5.22385763.5.5z"/></svg>

<?xml version="1.0" encoding="UTF-8"?>
<svg width="24px" height="24px" viewBox="0 0 24 24" version="1.1" xmlns="http://www.w3.org/2000/svg" xmlns:xlink="http://www.w3.org/1999/xlink">
    <!-- Generator: Sketch 55.2 (78181) - https://sketchapp.com -->
    <title>calendar</title>
    <desc>Created with Sketch.</desc>
    <g id="calendar" stroke="none" stroke-width="1" fill="none" fill-rule="evenodd">
        <path d="M20.5,9.5 L20.5,6 C20.5,5.17157288 19.8284271,4.5 19,4.5 L16.5,4.5 L16.5,6 C16.5,6.27614237 16.2761424,6.5 16,6.5 C15.7238576,6.5 15.5,6.27614237 15.5,6 L15.5,4.5 L8.5,4.5 L8.5,6 C8.5,6.27614237 8.27614237,6.5 8,6.5 C7.72385763,6.5 7.5,6.27614237 7.5,6 L7.5,4.5 L5,4.5 C4.17157288,4.5 3.5,5.17157288 3.5,6 L3.5,9.5 L20.5,9.5 Z M20.5,10.5 L3.5,10.5 L3.5,20 C3.5,20.8284271 4.17157288,21.5 5,21.5 L19,21.5 C19.8284271,21.5 20.5,20.8284271 20.5,20 L20.5,10.5 Z M8.5,3.5 L15.5,3.5 L15.5,2 C15.5,1.72385763 15.7238576,1.5 16,1.5 C16.2761424,1.5 16.5,1.72385763 16.5,2 L16.5,3.5 L19,3.5 C20.3807119,3.5 21.5,4.61928813 21.5,6 L21.5,20 C21.5,21.3807119 20.3807119,22.5 19,22.5 L5,22.5 C3.61928813,22.5 2.5,21.3807119 2.5,20 L2.5,6 C2.5,4.61928813 3.61928813,3.5 5,3.5 L7.5,3.5 L7.5,2 C7.5,1.72385763 7.72385763,1.5 8,1.5 C8.27614237,1.5 8.5,1.72385763 8.5,2 L8.5,3.5 Z" id="Combined-Shape" fill="#000000" fill-rule="nonzero"></path>
    </g>
</svg>
